public/icon/icon-map.svg

<svg width="14" height="14" viewBox="0 0 14 14" fill="none" xmlns="http://www.w3.org/2000/svg">
<path d="M6.44138 13.8335C6.44138 13.8335 6.44188 13.8338 7 13.0095L7.55812 13.8338C7.22015 14.0556 6.77935 14.0553 6.44138 13.8335Z" fill="#ABB910"/>
<path d="M6.44138 13.8335L7 13.0095C7.55812 13.8338 7.55923 13.8331 7.55923 13.8331L7.5608 13.832L7.5653 13.829L7.57965 13.8195C7.59156 13.8115 7.6081 13.8004 7.62896 13.7862C7.67068 13.7577 7.72974 13.7169 7.80368 13.6643C7.95145 13.5592 8.15922 13.4069 8.40705 13.2126C8.90113 12.8252 9.56253 12.2648 10.2273 11.5739C11.5158 10.2348 13 8.21773 13 5.90746C13 4.3407 12.3679 2.83812 11.2426 1.73025C10.1174 0.622391 8.5913 0 7 0C5.4087 0 3.88258 0.622391 2.75736 1.73025C1.63214 2.83812 1 4.3407 1 5.90746C1 8.21773 2.48417 10.2348 3.77265 11.5739C4.43747 12.2648 5.09887 12.8252 5.59295 13.2126C5.84078 13.4069 6.04855 13.5592 6.19632 13.6643C6.27026 13.7169 6.32932 13.7577 6.37104 13.7862C6.3919 13.8004 6.40844 13.8115 6.42035 13.8195L6.4347 13.829L6.4392 13.832L6.44138 13.8335Z" fill="#ABB910"/>
<path d="M7 8C8.10457 8 9 7.10457 9 6C9 4.89543 8.10457 4 7 4C5.89543 4 5 4.89543 5 6C5 7.10457 5.89543 8 7 8Z" fill="#F5F5F5"/>
</svg>

<svg width="14" height="14" fill="none" xmlns="http://www.w3.org/2000/svg"><path d="M6.441 13.834L7 13.009l.558.825a1.02 1.02 0 01-1.117 0z" fill="#ABB910"/><path d="M6.441 13.834L7 13.009c.558.825.56.824.56.824v-.001l.005-.003.015-.01.049-.033c.042-.028.1-.07.175-.122a17.794 17.794 0 002.424-2.09C11.515 10.234 13 8.218 13 5.907a5.863 5.863 0 00-1.757-4.177A6.048 6.048 0 007 0a6.048 6.048 0 00-4.243 1.73A5.862 5.862 0 001 5.907c0 2.31 1.484 4.328 2.773 5.667a17.8 17.8 0 002.598 2.212l.05.034.014.009.004.003.002.002z" fill="#ABB910"/><path d="M7 8a2 2 0 100-4 2 2 0 000 4z" fill="#F5F5F5"/></svg>
